images/sora-xstusd.svg

<svg height="250" viewBox="0 0 250 250" width="250" xmlns="http://www.w3.org/2000/svg"><path d="m250 125c0 69.027344-55.972656 125-125 125s-125-55.972656-125-125 55.972656-125 125-125 125 55.972656 125 125zm0 0" fill="#fff"/><path d="m19.792969 57.640625c-.070313 0-.140625-.070313-.070313-.140625 4.375-6.804688 9.445313-13.195312 15-19.027344h.070313 180.347656.066406c5.625 5.832032 10.625 12.222656 15 19.027344.070313.070312 0 .140625-.066406.140625zm38.886719-38.40625h132.570312c.070312 0 .140625-.136719.070312-.136719-19.238281-12.082031-41.945312-19.097656-66.320312-19.097656s-47.082031 7.015625-66.320312 19.027344c-.070313.070312-.070313.207031 0 .207031zm-55.207032 76.875h243.054688c.070312 0 .070312-.066406.070312-.066406-1.527344-6.597657-3.613281-12.917969-6.179687-19.027344 0 0-.070313-.070313-.070313-.070313h-230.695312s-.070313 0-.070313.070313c-2.566406 6.109375-4.652343 12.5-6.179687 19.027344-.070313.066406 0 .066406.070312.066406zm16.320313 96.25c-.070313 0-.140625.070313-.070313.140625 4.375 6.804688 9.445313 13.195312 15 19.027344h.070313 180.347656.066406c5.625-5.832032 10.625-12.222656 15-19.027344.070313-.070312 0-.140625-.066406-.140625zm229.859375-76.941406h-249.304688c-.207031 3.125-.347656 6.316406-.347656 9.582031 0 1.042969 0 2.082031.0703125 3.125 0 .417969 0 .832031.0703125 1.25 0 .625.066406 1.25.066406 1.875.070313 1.109375.140625 2.152344.210938 3.195312v.136719h249.304687c.207032-3.191406.347656-6.386719.347656-9.582031-.070312-3.265625-.210937-6.457031-.417968-9.582031zm-3.125 38.472656h-243.054688c-.070312 0-.070312.066406-.070312.066406 1.527344 6.597657 3.613281 12.917969 6.179687 19.027344 0 0 .070313.070313.070313.070313h230.695312s.070313 0 .070313-.070313c2.566406-6.109375 4.652343-12.5 6.179687-19.027344.070313-.066406 0-.066406-.070312-.066406zm-55.207032 76.875h-132.640624c-.070313 0-.136719.136719-.070313.136719 19.238281 12.082031 41.945313 19.027344 66.320313 19.027344s47.085937-7.011719 66.320312-19.027344c.140625 0 .140625-.136719.070312-.136719zm0 0" fill="#b32235"/><path d="m125.277344 134.582031h-124.929688c-.070312-1.527343-.140625-3.125-.2773435-4.652343 0-1.664063-.0703125-3.261719-.0703125-4.929688 0-69.027344 55.972656-125 125-125h.277344zm0 0" fill="#3c3b6e"/><path d="m55.695312 117.152344-4.515624 3.265625 1.738281 5.207031-4.445313-3.195312-4.515625 3.195312 1.738281-5.207031-4.445312-3.265625h5.484375l1.738281-5.207032 1.734375 5.207032zm8.402344-45-1.738281 5.207031h-5.484375l4.445312 3.265625-1.738281 5.207031 4.445313-3.191406 4.445312 3.191406-1.738281-5.207031 4.445313-3.265625h-5.484376zm-4.929687-39.167969 4.441406-3.261719 4.445313 3.261719-1.734376-5.277344 4.445313-3.191406h-5.488281l-1.734375-5.28125-1.738281 5.28125h-5.484376l4.445313 3.191406zm-8.890625 31.390625-1.734375-5.207031-1.738281 5.207031h-5.484376l4.445313 3.195312-1.738281 5.277344 4.445312-3.265625 4.445313 3.265625-1.738281-5.277344 4.445312-3.195312zm-6.667969-18.054688 4.445313-3.195312 4.445312 3.195312-1.734375-5.277343 4.441406-3.195313h-5.484375l-1.738281-5.207031-1.734375 5.207031h-5.484375l4.441406 3.195313zm-10.625 25.832032-1.734375 5.207031h-5.484375l4.441406 3.265625-1.734375 5.207031 4.445313-3.191406 4.441406 3.191406-1.734375-5.207031 4.445312-3.265625h-5.347656zm15.835937 13.195312-1.738281 5.277344h-5.484375l4.445313 3.195312-1.738281 5.277344 4.445312-3.265625 4.445312 3.265625-1.738281-5.277344 4.445313-3.195312h-5.484375zm-45.277343 18.542969-1.113281-3.472656c-.277344 1.457031-.554688 2.847656-.761719 4.304687 0 .136719-.070313.277344-.070313.417969-.140625.625-.207031 1.316406-.277344 1.941406 0 .210938-.070312.417969-.070312.625-.070312.695313-.207031 1.320313-.277344 2.015625l.902344-.695312 4.445312 3.265625-1.738281-5.277344 4.445313-3.195313h-5.484375zm62.222656-52.710937-1.738281-5.277344-1.734375 5.277344h-5.488281l4.445312 3.195312-1.734375 5.347656 4.441406-3.265625 4.515625 3.265625-1.738281-5.277344 4.445313-3.195312h-5.414063zm-37.363281 8.542968 4.515625-3.265625 4.441406 3.265625-1.734375-5.277344 4.445312-3.195312h-5.488281l-1.734375-5.277344-1.597656 5.207032h-5.554688l4.445313 3.195312zm51.527344 25.625-1.734376 5.277344h-5.488281l4.445313 3.195312-1.734375 5.277344 4.441406-3.265625 4.445313 3.265625-1.734376-5.277344 4.445313-3.195312h-5.488281zm1.320312 31.804688-1.734375-5.207032-1.738281 5.207032h-5.484375l4.441406 3.265625-1.734375 5.207031 4.445312-3.195312 4.445313 3.195312-1.738281-5.207031 4.515625-3.265625zm.140625-52.777344-1.738281-5.207031-1.734375 5.207031h-5.488281l4.445312 3.195312-1.734375 5.277344 4.441406-3.265625 4.445313 3.265625-1.734375-5.277344 4.441406-3.195312zm-15.625 39.515625-1.738281-5.28125-1.734375 5.28125h-5.488281l4.445312 3.191406-1.734375 5.277344 4.441406-3.261719 4.515625 3.261719-1.738281-5.277344 4.445313-3.191406zm8.957031-57.570313 4.445313-3.195312 4.441406 3.195312-1.734375-5.277343 4.445312-3.195313h-5.488281l-1.734375-5.207031-1.738281 5.207031h-5.484375l4.445312 3.195313zm37.707032 18.054688-1.734376-5.207031-1.738281 5.207031h-5.484375l4.445313 3.195312-1.738281 5.277344 4.445312-3.265625 4.445312 3.265625-1.738281-5.277344 4.445313-3.195312zm-.070313 52.777344-1.734375-5.207032-1.734375 5.207032h-5.488281l4.445312 3.265625-1.738281 5.207031 4.445313-3.195312 4.445312 3.195312-1.734375-5.207031 4.441406-3.265625zm-6.527344-97.5 4.445313-3.261719 4.445312 3.261719-1.738281-5.277344 4.445313-3.195312h-5.484376l-1.738281-5.277344-1.734375 5.277344h-5.488281l4.445313 3.195312zm-15.554687 13.332031 4.445312-3.261719 4.445313 3.261719-1.738281-5.277344 4.445312-3.191406h-5.484375l-1.738281-5.28125-1.734375 5.28125h-5.417969l4.445312 3.191406zm15.554687 13.335937 4.445313-3.195312 4.445312 3.195312-1.738281-5.277343 4.445313-3.195313h-5.484376l-1.738281-5.207031-1.734375 5.207031h-5.488281l4.445313 3.195313zm-9.027343 4.859376-1.734376-5.277344-1.738281 5.277344h-5.484375l4.445313 3.195312-1.738281 5.277344 4.445312-3.261719 4.445312 3.261719-1.738281-5.277344 4.515625-3.195312zm-22.082032-31.527344 4.445313-3.261719 4.441406 3.261719-1.734375-5.277344 4.445312-3.195312h-5.488281l-.902343-2.777344c-.625.207031-1.25.488281-1.804688.695312l-.695312 2.082032h-4.164063c-.28125.140624-.558594.277343-.835937.347656l3.960937 2.847656zm38.054688 70.972656-1.734375-5.277344-1.738281 5.277344h-5.484376l4.445313 3.195312-1.738281 5.277344 4.445312-3.265625 4.445313 3.265625-1.738281-5.277344 4.445312-3.195312zm-95.070313-5.277344-1.734375 5.277344h-5.488281l4.445313 3.195312-1.734376 5.277344 4.445313-3.265625 4.441406 3.265625-1.734375-5.277344 4.445313-3.195312h-5.347657zm-.277343-15.695312 4.445312 3.265625-1.734375-5.277344 4.441406-3.195313h-5.484375l-1.25-3.890624c-.695312 1.179687-1.390625 2.292968-2.015625 3.472656l-.136719.347656h-.070312c-.484375.902344-1.042969 1.875-1.527344 2.847656l.554688.417969-1.734375 5.277344zm1.667968 47.5-1.738281-5.207032-1.734375 5.207032h-5.554688l4.511719 3.265625-1.734375 5.207031 4.511719-3.195312 4.445313 3.195312-1.734376-5.207031 4.445313-3.265625zm-12.777344-31.457032c0 .070313 0 .070313 0 0v.070313l.070313.066406zm88.886719-13.542968-1.734375 5.207031h-5.488281l4.445313 3.265625-1.734376 5.207031 4.445313-3.191406 4.441406 3.191406-1.734375-5.207031 4.445313-3.265625h-5.488281zm-60.554687 31.738281-1.734375-5.28125-1.738281 5.28125h-5.554688l4.445312 3.191406-1.738281 5.277344 4.515625-3.261719 4.445313 3.261719-1.738281-5.277344 4.445312-3.191406zm62.152344 0-1.734376-5.28125-1.738281 5.28125h-5.484375l4.445313 3.191406-1.738281 5.277344 4.445312-3.261719 4.445312 3.261719-1.738281-5.277344 4.515625-3.191406zm0 0" fill="#fff"/><path d="m125 0c69.027344 0 125 55.972656 125 125s-55.972656 125-125 125-125-55.972656-125-125 55.972656-125 125-125zm0 0" fill="#888" fill-opacity=".25"/><path d="m167.5 211.597656-42.5-67.707031-42.777344 67.707031-45.765625-.070312 61.320313-96.109375h-53.332032v-77.085938h161.109376v77.085938h-53.332032l61.597656 96.109375zm0 0" fill="#fff"/><path d="m53.890625 202.222656h22.914063l48.195312-76.597656 48.195312 76.597656h22.914063l-61.59375-96.527344h61.316406v-19.027343h-61.316406v-19.585938h61.316406v-19.027343h-141.664062v19.027343h61.316406v19.585938h-61.316406v19.027343h61.316406zm0 0" fill="#e23"/></svg>

<svg xmlns="http://www.w3.org/2000/svg" xmlns:xlink="http://www.w3.org/1999/xlink" width="250px" height="250px" viewBox="0 0 250 250" version="1.1">
<g id="surface1">
<path style=" stroke:none;fill-rule:nonzero;fill:rgb(100%,100%,100%);fill-opacity:1;" d="M 250 125 C 250 194.027344 194.027344 250 125 250 C 55.972656 250 0 194.027344 0 125 C 0 55.972656 55.972656 0 125 0 C 194.027344 0 250 55.972656 250 125 Z M 250 125 "/>
<path style=" stroke:none;fill-rule:nonzero;fill:rgb(70.19608%,13.333334%,20.784314%);fill-opacity:1;" d="M 19.792969 57.640625 C 19.722656 57.640625 19.652344 57.570312 19.722656 57.5 C 24.097656 50.695312 29.167969 44.304688 34.722656 38.472656 C 34.722656 38.472656 34.792969 38.472656 34.792969 38.472656 L 215.140625 38.472656 C 215.140625 38.472656 215.207031 38.472656 215.207031 38.472656 C 220.832031 44.304688 225.832031 50.695312 230.207031 57.5 C 230.277344 57.570312 230.207031 57.640625 230.140625 57.640625 Z M 58.679688 19.234375 L 191.25 19.234375 C 191.320312 19.234375 191.390625 19.097656 191.320312 19.097656 C 172.082031 7.015625 149.375 0 125 0 C 100.625 0 77.917969 7.015625 58.679688 19.027344 C 58.609375 19.097656 58.609375 19.234375 58.679688 19.234375 Z M 3.472656 96.109375 L 246.527344 96.109375 C 246.597656 96.109375 246.597656 96.042969 246.597656 96.042969 C 245.070312 89.445312 242.984375 83.125 240.417969 77.015625 C 240.417969 77.015625 240.347656 76.945312 240.347656 76.945312 L 9.652344 76.945312 C 9.652344 76.945312 9.582031 76.945312 9.582031 77.015625 C 7.015625 83.125 4.929688 89.515625 3.402344 96.042969 C 3.332031 96.109375 3.402344 96.109375 3.472656 96.109375 Z M 19.792969 192.359375 C 19.722656 192.359375 19.652344 192.429688 19.722656 192.5 C 24.097656 199.304688 29.167969 205.695312 34.722656 211.527344 C 34.722656 211.527344 34.792969 211.527344 34.792969 211.527344 L 215.140625 211.527344 C 215.140625 211.527344 215.207031 211.527344 215.207031 211.527344 C 220.832031 205.695312 225.832031 199.304688 230.207031 192.5 C 230.277344 192.429688 230.207031 192.359375 230.140625 192.359375 Z M 249.652344 115.417969 L 0.347656 115.417969 C 0.140625 118.542969 0 121.734375 0 125 C 0 126.042969 0 127.082031 0.0703125 128.125 C 0.0703125 128.542969 0.0703125 128.957031 0.140625 129.375 C 0.140625 130 0.207031 130.625 0.207031 131.25 C 0.277344 132.359375 0.347656 133.402344 0.417969 134.445312 C 0.417969 134.515625 0.417969 134.515625 0.417969 134.582031 C 83.542969 134.582031 166.597656 134.582031 249.722656 134.582031 C 249.929688 131.390625 250.070312 128.195312 250.070312 125 C 250 121.734375 249.859375 118.542969 249.652344 115.417969 Z M 246.527344 153.890625 L 3.472656 153.890625 C 3.402344 153.890625 3.402344 153.957031 3.402344 153.957031 C 4.929688 160.554688 7.015625 166.875 9.582031 172.984375 C 9.582031 172.984375 9.652344 173.054688 9.652344 173.054688 L 240.347656 173.054688 C 240.347656 173.054688 240.417969 173.054688 240.417969 172.984375 C 242.984375 166.875 245.070312 160.484375 246.597656 153.957031 C 246.667969 153.890625 246.597656 153.890625 246.527344 153.890625 Z M 191.320312 230.765625 L 58.679688 230.765625 C 58.609375 230.765625 58.542969 230.902344 58.609375 230.902344 C 77.847656 242.984375 100.554688 249.929688 124.929688 249.929688 C 149.304688 249.929688 172.015625 242.917969 191.25 230.902344 C 191.390625 230.902344 191.390625 230.765625 191.320312 230.765625 Z M 191.320312 230.765625 "/>
<path style=" stroke:none;fill-rule:nonzero;fill:rgb(23.529412%,23.137255%,43.137255%);fill-opacity:1;" d="M 125.277344 134.582031 L 0.347656 134.582031 C 0.277344 133.054688 0.207031 131.457031 0.0703125 129.929688 C 0.0703125 128.265625 0 126.667969 0 125 C 0 55.972656 55.972656 0 125 0 C 125.070312 0 125.140625 0 125.277344 0 Z M 125.277344 134.582031 "/>
<path style=" stroke:none;fill-rule:nonzero;fill:rgb(100%,100%,100%);fill-opacity:1;" d="M 55.695312 117.152344 L 51.179688 120.417969 L 52.917969 125.625 L 48.472656 122.429688 L 43.957031 125.625 L 45.695312 120.417969 L 41.25 117.152344 L 46.734375 117.152344 L 48.472656 111.945312 L 50.207031 117.152344 Z M 64.097656 72.152344 L 62.359375 77.359375 L 56.875 77.359375 L 61.320312 80.625 L 59.582031 85.832031 L 64.027344 82.640625 L 68.472656 85.832031 L 66.734375 80.625 L 71.179688 77.359375 L 65.695312 77.359375 Z M 59.167969 32.984375 L 63.609375 29.722656 L 68.054688 32.984375 L 66.320312 27.707031 L 70.765625 24.515625 L 65.277344 24.515625 L 63.542969 19.234375 L 61.804688 24.515625 L 56.320312 24.515625 L 60.765625 27.707031 Z M 50.277344 64.375 L 48.542969 59.167969 L 46.804688 64.375 L 41.320312 64.375 L 45.765625 67.570312 L 44.027344 72.847656 L 48.472656 69.582031 L 52.917969 72.847656 L 51.179688 67.570312 L 55.625 64.375 Z M 43.609375 46.320312 L 48.054688 43.125 L 52.5 46.320312 L 50.765625 41.042969 L 55.207031 37.847656 L 49.722656 37.847656 L 47.984375 32.640625 L 46.25 37.847656 L 40.765625 37.847656 L 45.207031 41.042969 Z M 32.984375 72.152344 L 31.25 77.359375 L 25.765625 77.359375 L 30.207031 80.625 L 28.472656 85.832031 L 32.917969 82.640625 L 37.359375 85.832031 L 35.625 80.625 L 40.070312 77.359375 L 34.722656 77.359375 Z M 48.820312 85.347656 L 47.082031 90.625 L 41.597656 90.625 L 46.042969 93.820312 L 44.304688 99.097656 L 48.75 95.832031 L 53.195312 99.097656 L 51.457031 93.820312 L 55.902344 90.625 L 50.417969 90.625 Z M 3.542969 103.890625 L 2.429688 100.417969 C 2.152344 101.875 1.875 103.265625 1.667969 104.722656 C 1.667969 104.859375 1.597656 105 1.597656 105.140625 C 1.457031 105.765625 1.390625 106.457031 1.320312 107.082031 C 1.320312 107.292969 1.25 107.5 1.25 107.707031 C 1.179688 108.402344 1.042969 109.027344 0.972656 109.722656 L 1.875 109.027344 L 6.320312 112.292969 L 4.582031 107.015625 L 9.027344 103.820312 L 3.542969 103.820312 Z M 65.765625 51.179688 L 64.027344 45.902344 L 62.292969 51.179688 L 56.804688 51.179688 L 61.25 54.375 L 59.515625 59.722656 L 63.957031 56.457031 L 68.472656 59.722656 L 66.734375 54.445312 L 71.179688 51.25 L 65.765625 51.25 Z M 28.402344 59.722656 L 32.917969 56.457031 L 37.359375 59.722656 L 35.625 54.445312 L 40.070312 51.25 L 34.582031 51.25 L 32.847656 45.972656 L 31.25 51.179688 L 25.695312 51.179688 L 30.140625 54.375 Z M 79.929688 85.347656 L 78.195312 90.625 L 72.707031 90.625 L 77.152344 93.820312 L 75.417969 99.097656 L 79.859375 95.832031 L 84.304688 99.097656 L 82.570312 93.820312 L 87.015625 90.625 L 81.527344 90.625 Z M 81.25 117.152344 L 79.515625 111.945312 L 77.777344 117.152344 L 72.292969 117.152344 L 76.734375 120.417969 L 75 125.625 L 79.445312 122.429688 L 83.890625 125.625 L 82.152344 120.417969 L 86.667969 117.152344 Z M 81.390625 64.375 L 79.652344 59.167969 L 77.917969 64.375 L 72.429688 64.375 L 76.875 67.570312 L 75.140625 72.847656 L 79.582031 69.582031 L 84.027344 72.847656 L 82.292969 67.570312 L 86.734375 64.375 Z M 65.765625 103.890625 L 64.027344 98.609375 L 62.292969 103.890625 L 56.804688 103.890625 L 61.25 107.082031 L 59.515625 112.359375 L 63.957031 109.097656 L 68.472656 112.359375 L 66.734375 107.082031 L 71.179688 103.890625 Z M 74.722656 46.320312 L 79.167969 43.125 L 83.609375 46.320312 L 81.875 41.042969 L 86.320312 37.847656 L 80.832031 37.847656 L 79.097656 32.640625 L 77.359375 37.847656 L 71.875 37.847656 L 76.320312 41.042969 Z M 112.429688 64.375 L 110.695312 59.167969 L 108.957031 64.375 L 103.472656 64.375 L 107.917969 67.570312 L 106.179688 72.847656 L 110.625 69.582031 L 115.070312 72.847656 L 113.332031 67.570312 L 117.777344 64.375 Z M 112.359375 117.152344 L 110.625 111.945312 L 108.890625 117.152344 L 103.402344 117.152344 L 107.847656 120.417969 L 106.109375 125.625 L 110.554688 122.429688 L 115 125.625 L 113.265625 120.417969 L 117.707031 117.152344 Z M 105.832031 19.652344 L 110.277344 16.390625 L 114.722656 19.652344 L 112.984375 14.375 L 117.429688 11.179688 L 111.945312 11.179688 L 110.207031 5.902344 L 108.472656 11.179688 L 102.984375 11.179688 L 107.429688 14.375 Z M 90.277344 32.984375 L 94.722656 29.722656 L 99.167969 32.984375 L 97.429688 27.707031 L 101.875 24.515625 L 96.390625 24.515625 L 94.652344 19.234375 L 92.917969 24.515625 L 87.5 24.515625 L 91.945312 27.707031 Z M 105.832031 46.320312 L 110.277344 43.125 L 114.722656 46.320312 L 112.984375 41.042969 L 117.429688 37.847656 L 111.945312 37.847656 L 110.207031 32.640625 L 108.472656 37.847656 L 102.984375 37.847656 L 107.429688 41.042969 Z M 96.804688 51.179688 L 95.070312 45.902344 L 93.332031 51.179688 L 87.847656 51.179688 L 92.292969 54.375 L 90.554688 59.652344 L 95 56.390625 L 99.445312 59.652344 L 97.707031 54.375 L 102.222656 51.179688 Z M 74.722656 19.652344 L 79.167969 16.390625 L 83.609375 19.652344 L 81.875 14.375 L 86.320312 11.179688 L 80.832031 11.179688 L 79.929688 8.402344 C 79.304688 8.609375 78.679688 8.890625 78.125 9.097656 L 77.429688 11.179688 L 73.265625 11.179688 C 72.984375 11.320312 72.707031 11.457031 72.429688 11.527344 L 76.390625 14.375 Z M 112.777344 90.625 L 111.042969 85.347656 L 109.304688 90.625 L 103.820312 90.625 L 108.265625 93.820312 L 106.527344 99.097656 L 110.972656 95.832031 L 115.417969 99.097656 L 113.679688 93.820312 L 118.125 90.625 Z M 17.707031 85.347656 L 15.972656 90.625 L 10.484375 90.625 L 14.929688 93.820312 L 13.195312 99.097656 L 17.640625 95.832031 L 22.082031 99.097656 L 20.347656 93.820312 L 24.792969 90.625 L 19.445312 90.625 Z M 17.429688 69.652344 L 21.875 72.917969 L 20.140625 67.640625 L 24.582031 64.445312 L 19.097656 64.445312 L 17.847656 60.554688 C 17.152344 61.734375 16.457031 62.847656 15.832031 64.027344 L 15.695312 64.375 L 15.625 64.375 C 15.140625 65.277344 14.582031 66.25 14.097656 67.222656 L 14.652344 67.640625 L 12.917969 72.917969 Z M 19.097656 117.152344 L 17.359375 111.945312 L 15.625 117.152344 L 10.070312 117.152344 L 14.582031 120.417969 L 12.847656 125.625 L 17.359375 122.429688 L 21.804688 125.625 L 20.070312 120.417969 L 24.515625 117.152344 Z M 6.320312 85.695312 C 6.320312 85.765625 6.320312 85.765625 6.320312 85.695312 C 6.320312 85.765625 6.320312 85.765625 6.320312 85.765625 L 6.390625 85.832031 Z M 95.207031 72.152344 L 93.472656 77.359375 L 87.984375 77.359375 L 92.429688 80.625 L 90.695312 85.832031 L 95.140625 82.640625 L 99.582031 85.832031 L 97.847656 80.625 L 102.292969 77.359375 L 96.804688 77.359375 Z M 34.652344 103.890625 L 32.917969 98.609375 L 31.179688 103.890625 L 25.625 103.890625 L 30.070312 107.082031 L 28.332031 112.359375 L 32.847656 109.097656 L 37.292969 112.359375 L 35.554688 107.082031 L 40 103.890625 Z M 96.804688 103.890625 L 95.070312 98.609375 L 93.332031 103.890625 L 87.847656 103.890625 L 92.292969 107.082031 L 90.554688 112.359375 L 95 109.097656 L 99.445312 112.359375 L 97.707031 107.082031 L 102.222656 103.890625 Z M 96.804688 103.890625 "/>
<path style=" stroke:none;fill-rule:nonzero;fill:rgb(53.333336%,53.333336%,53.333336%);fill-opacity:0.25;" d="M 125 0 C 194.027344 0 250 55.972656 250 125 C 250 194.027344 194.027344 250 125 250 C 55.972656 250 0 194.027344 0 125 C 0 55.972656 55.972656 0 125 0 Z M 125 0 "/>
<path style=" stroke:none;fill-rule:nonzero;fill:rgb(100%,100%,100%);fill-opacity:1;" d="M 167.5 211.597656 L 125 143.890625 L 82.222656 211.597656 L 36.457031 211.527344 L 97.777344 115.417969 L 44.445312 115.417969 L 44.445312 38.332031 L 205.554688 38.332031 L 205.554688 115.417969 L 152.222656 115.417969 L 213.820312 211.527344 Z M 167.5 211.597656 "/>
<path style=" stroke:none;fill-rule:nonzero;fill:rgb(93.333334%,13.333334%,20%);fill-opacity:1;" d="M 53.890625 202.222656 L 76.804688 202.222656 L 125 125.625 L 173.195312 202.222656 L 196.109375 202.222656 L 134.515625 105.695312 L 195.832031 105.695312 L 195.832031 86.667969 L 134.515625 86.667969 L 134.515625 67.082031 L 195.832031 67.082031 L 195.832031 48.054688 L 54.167969 48.054688 L 54.167969 67.082031 L 115.484375 67.082031 L 115.484375 86.667969 L 54.167969 86.667969 L 54.167969 105.695312 L 115.484375 105.695312 Z M 53.890625 202.222656 "/>
</g>
</svg>
